icons/hubot-24.svg

<svg xmlns="http://www.w3.org/2000/svg" width="24" height="24" viewBox="0 0 24 24"><path d="M0 13C0 6.373 5.373 1 12 1s12 5.373 12 12v8.657a.75.75 0 01-1.5 0V13c0-5.799-4.701-10.5-10.5-10.5S1.5 7.201 1.5 13v8.657a.75.75 0 01-1.5 0V13z"/><path d="M8 19.75a.75.75 0 01.75-.75h6.5a.75.75 0 010 1.5h-6.5a.75.75 0 01-.75-.75zM5.25 9.5h13.5c.966 0 1.75.784 1.75 1.75v3.5a1.75 1.75 0 01-1.75 1.75H5.25a1.75 1.75 0 01-1.75-1.75v-3.5c0-.966.784-1.75 1.75-1.75zm.22 1.47a.75.75 0 000 1.06l3 3a.75.75 0 001.06 0L12 12.56l2.47 2.47a.75.75 0 001.06 0l3-3a.749.749 0 00-.326-1.275.749.749 0 00-.734.215L15 13.44l-2.47-2.47a.75.75 0 00-1.06 0L9 13.44l-2.47-2.47a.75.75 0 00-1.06 0z"/></svg>

<svg xmlns="http://www.w3.org/2000/svg" width="24" height="24" viewBox="0 0 24 24">
  <defs/>
  <path d="M0,13 C0,6.373 5.373,1 12,1 C18.627,1 24,6.373 24,13 L24,21.657 A0.75 0.75 0 0 1 22.5,21.657 L22.5,13 C22.5,7.201 17.799,2.5 12,2.5 C6.201,2.5 1.5,7.201 1.5,13 L1.5,21.657 A0.75 0.75 0 0 1 0,21.657 L0,13 Z"/>
  <path d="M8,19.75 A0.75 0.75 0 0 1 8.75,19 L15.25,19 A0.75 0.75 0 0 1 15.25,20.5 L8.75,20.5 A0.75 0.75 0 0 1 8,19.75 Z"/>
  <path d="M5.25,9.5 L18.75,9.5 C19.716,9.5 20.5,10.284 20.5,11.25 L20.5,14.75 C20.5,15.716 19.716,16.5 18.75,16.5 L5.25,16.5 C4.284,16.5 3.5,15.716 3.5,14.75 L3.5,11.25 C3.5,10.284 4.284,9.5 5.25,9.5 Z M5.47,10.97 C5.178,11.263 5.178,11.737 5.47,12.03 L8.47,15.03 C8.763,15.322 9.237,15.322 9.53,15.03 L12,12.56 L14.47,15.03 C14.763,15.322 15.237,15.322 15.53,15.03 L18.53,12.03 C18.731,11.843 18.813,11.561 18.745,11.296 C18.678,11.03 18.47,10.822 18.204,10.755 C17.939,10.687 17.657,10.769 17.47,10.97 L15,13.44 L12.53,10.97 C12.237,10.678 11.763,10.678 11.47,10.97 L9,13.44 L6.53,10.97 C6.237,10.678 5.763,10.678 5.47,10.97 Z"/>
</svg>
